X:0878
M:6/8
L:1/8
Q:3/8=120
K:G
     Bdd Add|gag f2d|Bdd Add|gec      d3 |
     Bdd Add|gag f2d|Bdd Add|gfe      d3|]

